X: 22
T: Old Morpeth Rant
C: Traditional
O: England
R: reel
M: 4/4
L: 1/8
K: Gmaj
|:BA|"G" G2DB, G,B,DB,|"C" G,CEC "G" G,B,DB,|G2AB "Am" cBAG|"D" F2A2 AcBA|
"G" G2DB, G,B,DB,|"C" G,CEC "G" G,B,DB,|G2AB "D" cBAF|A2 "G" G2 G2:|
|:Bd|"G" gfed B2GB|"Am" cBAG "D" F2D2|"C" ECEG cBAG|"D" F2D2 D3D|
"C" ECEG cBAG|"D" FDFA dcBA|"G" Ggfg "D" ecAF|A2 "G" G2 G2:|

